X: 3
T: Miss McLeod's
R: reel
M: 4/4
L: 1/8
K: Gmaj
G2BG dGBG|GBBA BcBA|G2BG dGBG|FGAB cBAF|G2BG dGBG|GBBA Bcdf|efed ^cdef|~g3e dBAF:||G2gf edgd|B2BA BcbA|g2fg efge|A2AG AcBA|G2gf edgd|B2BA Bcdf|efed ^cdef|~g3e dBAF| G2gf edgd|B2BA Bcba|g2fg efgb|a2ag agef|g2fg edgd|B2BA Bcdf|efed ^cdef|gedg ecAF||


Tune 75	Setting 26044

